X:5133
T:The Liar Kelly
M:6/8
L:1/8
C:Aidan Crossey
R:Jig
K:G
|:G2B BAB|d2B BAB|G2B BAB|ABc D2F|
G2B BAB|d2B BAB|cde ABc|EFA G3:||
|:g2B BAB|d2B BAB|a2A ABA|DFA cdf|
g2B BAB|d2B BAB|cde ABc|EFA G3:||
